docs/.gitbook/assets/icon-phone-ringing-16@light.svg

<svg width="32" height="32" viewBox="0 0 16 16" fill="none" xmlns="http://www.w3.org/2000/svg">
<rect x="0" y="0" width="16" height="16" fill="#fff"/>
<path fill-rule="evenodd" clip-rule="evenodd" d="M2.63207 2.56225C2.60569 2.59086 2.59249 2.62488 2.5994 2.67327C2.79805 4.06454 3.36642 6.65646 4.94124 8.95067C6.49421 11.213 9.03823 13.2108 13.2937 13.4713C13.3853 13.4769 13.4999 13.3989 13.4999 13.25V11.0868L11.8812 9.6479L10.6247 10.2762C9.56595 10.8055 8.28728 10.598 7.45029 9.76102L6.2389 8.54964C5.40191 7.71265 5.19441 6.43398 5.72377 5.37526L6.35202 4.11876L4.91313 2.5H2.79073C2.71469 2.5 2.66156 2.53027 2.63207 2.56225ZM1.11446 2.8853C0.963181 1.82581 1.81348 1 2.79073 1H5.24993C5.46415 1 5.66816 1.09161 5.81048 1.25173L7.81048 3.50173C8.01423 3.73094 8.0579 4.06111 7.92075 4.33541L7.06541 6.04608C6.82479 6.52731 6.91911 7.10853 7.29956 7.48898L8.51095 8.70036C8.8914 9.08081 9.47261 9.17513 9.95385 8.93451L11.6645 8.07918C11.9388 7.94203 12.269 7.9857 12.4982 8.18944L14.7482 10.1894C14.9083 10.3318 14.9999 10.5358 14.9999 10.75V13.25C14.9999 14.2057 14.213 15.0304 13.2021 14.9685C8.43332 14.6766 5.48796 12.3976 3.70457 9.79957C1.94303 7.23335 1.32804 4.38117 1.11446 2.8853ZM9.99993 1.75C9.99993 1.33579 10.3357 1 10.7499 1H10.8845C13.1574 1 14.9999 2.84252 14.9999 5.11539V5.25C14.9999 5.66421 14.6641 6 14.2499 6C13.8357 6 13.4999 5.66421 13.4999 5.25V5.11539C13.4999 3.67095 12.329 2.5 10.8845 2.5H10.7499C10.3357 2.5 9.99993 2.16421 9.99993 1.75ZM8.99993 4.75C8.99993 4.33579 9.33571 4 9.74993 4H9.80762C11.0184 4 11.9999 4.98153 11.9999 6.19231V6.25C11.9999 6.66421 11.6641 7 11.2499 7C10.8357 7 10.4999 6.66421 10.4999 6.25V6.19231C10.4999 5.80996 10.19 5.5 9.80762 5.5H9.74993C9.33571 5.5 8.99993 5.16421 8.99993 4.75Z" fill="#000"/>
</svg>

<svg xmlns="http://www.w3.org/2000/svg" width="32" height="32" fill="none" viewBox="0 0 16 16"><path fill="#fff" d="M0 0h16v16H0z"/><path fill="#000" fill-rule="evenodd" d="M2.632 2.562a.13.13 0 0 0-.033.111c.199 1.392.767 3.983 2.342 6.278 1.553 2.262 4.097 4.26 8.353 4.52.091.006.206-.072.206-.221v-2.163l-1.619-1.44-1.256.63A2.75 2.75 0 0 1 7.45 9.76L6.24 8.55a2.75 2.75 0 0 1-.515-3.175l.628-1.256L4.913 2.5H2.791c-.076 0-.13.03-.159.062m-1.518.323C.964 1.825 1.814 1 2.791 1H5.25a.75.75 0 0 1 .56.252l2 2.25a.75.75 0 0 1 .11.833l-.855 1.711A1.25 1.25 0 0 0 7.3 7.49L8.51 8.7c.381.38.963.475 1.444.235l1.71-.856a.75.75 0 0 1 .834.11l2.25 2a.75.75 0 0 1 .252.561v2.5c0 .956-.787 1.78-1.798 1.719-4.769-.292-7.714-2.571-9.497-5.17-1.762-2.566-2.377-5.418-2.59-6.914M10 1.75a.75.75 0 0 1 .75-.75h.134A4.115 4.115 0 0 1 15 5.115v.135a.75.75 0 0 1-1.5 0v-.135A2.615 2.615 0 0 0 10.884 2.5h-.134a.75.75 0 0 1-.75-.75m-1 3A.75.75 0 0 1 9.75 4h.058C11.018 4 12 4.982 12 6.192v.058a.75.75 0 0 1-1.5 0v-.058a.69.69 0 0 0-.692-.692H9.75A.75.75 0 0 1 9 4.75" clip-rule="evenodd"/></svg>
